ligands/tetradentate/tpa-tris-2-pyridylmethyl-amine.svg

<svg height="140" viewBox="0 0 172 140" width="172" xmlns="http://www.w3.org/2000/svg"><text font-family="Helvetica" font-size="360" font-weight="bold" transform="matrix(.05 0 0 .05 48.135 54.09)">N</text><path d="m3723.46 6146.47 20 11.55v588.45l-20 11.55z" transform="matrix(.05 0 0 .05 -184 -290)"/><path d="m3795.46 6193.82h20v516.86h-20z" transform="matrix(.05 0 0 .05 -184 -290)"/><path d="m3723.46 6758.02 20-11.55 509.61 294.23v23.09z" transform="matrix(.05 0 0 .05 -184 -290)"/><path d="m4253.07 7063.79v-23.09l350.79-202.52 10 17.32z" transform="matrix(.05 0 0 .05 -184 -290)"/><path d="m4258.07 6977.77-10-17.32 319.79-184.63 10 17.32z" transform="matrix(.05 0 0 .05 -184 -290)"/><path d="m4782.69 6582.7h-20v-424.68l10-5.77 10 7.26z" transform="matrix(.05 0 0 .05 -184 -290)"/><path d="m4773.83 6141.36-1.14 10.89-10 5.77-509.62-294.23v-23.09z" transform="matrix(.05 0 0 .05 -184 -290)"/><path d="m4705.69 6185.16-10 17.32-447.62-258.44 10-17.32z" transform="matrix(.05 0 0 .05 -184 -290)"/><path d="m4253.07 5840.7v23.09l-509.61 294.23-20-11.55z" transform="matrix(.05 0 0 .05 -184 -290)"/><text font-family="Helvetica" font-size="360" font-weight="bold" transform="matrix(.05 0 0 .05 97.154 37.09)">N</text><path d="m4927.58 6801.25 4.85-19.4 397.14 99.21 3.5 11.19-18.84 5.6z" transform="matrix(.05 0 0 .05 -184 -290)"/><path d="m5346.13 6892.51-13.06-.26-3.5-11.19 280.2-320.22 15.05 13.17z" transform="matrix(.05 0 0 .05 -184 -290)"/><path d="m5620.93 6253.83-14.72 13.54-265.9-289.04 6.03-22.99z" transform="matrix(.05 0 0 .05 -184 -290)"/><path d="m5346.34 5955.34-6.03 22.99-557.62 181.18-10-7.26 1.14-10.89z" transform="matrix(.05 0 0 .05 -184 -290)"/><path d="m5910.85 6481.9 7-18.74 366.52 137-17.64 14.76z" transform="matrix(.05 0 0 .05 -184 -290)"/><path d="m5824.01 6600.76 18.34-7.96 165.26 380.7-23.23-3.28z" transform="matrix(.05 0 0 .05 -184 -290)"/><path d="m6266.73 6614.92 17.64-14.76 117.51 644.61-8.81 7.48-10.87-3.89z" transform="matrix(.05 0 0 .05 -184 -290)"/><text font-family="Helvetica" font-size="360" font-weight="bold" transform="matrix(.05 0 0 .05 106.285 98.506)">N</text><path d="m6382.2 7248.36 10.87 3.89 2.08 11.36-296.66 251.86-12.95-15.25z" transform="matrix(.05 0 0 .05 -184 -290)"/><path d="m6401.51 7326.41 12.95 15.25-269.37 228.69-12.95-15.24z" transform="matrix(.05 0 0 .05 -184 -290)"/><path d="m5958.22 7819.98 19.68-3.59 74.19 406.98-17.61 14.94z" transform="matrix(.05 0 0 .05 -184 -290)"/><path d="m6034.48 8238.31 17.61-14.94 554.12 198.06 4.14 22.72z" transform="matrix(.05 0 0 .05 -184 -290)"/><path d="m6103.3 8186.45 6.73-18.83 486.7 173.96-6.73 18.84z" transform="matrix(.05 0 0 .05 -184 -290)"/><path d="m6610.35 8444.15-4.14-22.72 448.58-380.85 21.75 7.78z" transform="matrix(.05 0 0 .05 -184 -290)"/><path d="m7076.54 8048.36-21.75-7.78-105.53-578.91 17.61-14.95z" transform="matrix(.05 0 0 .05 -184 -290)"/><path d="m6997.22 8014.69-19.68 3.59-92.69-508.48 19.68-3.59z" transform="matrix(.05 0 0 .05 -184 -290)"/><path d="m6966.87 7446.72-17.61 14.95-554.11-198.06-2.08-11.36 8.81-7.48z" transform="matrix(.05 0 0 .05 -184 -290)"/><text font-family="Helvetica" font-size="360" font-weight="bold" transform="matrix(.05 0 0 .05 54.793 84.096)">N</text><g transform="matrix(.05 0 0 .05 -184 -290)"><path d="m4739.95 7418.69 8.46 18.12-376.89 175.75-18.92-13.25z"/><path d="m4770.38 7483.94 8.45 18.13-344.44 160.61-8.45-18.12z"/><path d="m4352.6 7599.31 18.92 13.25-51.29 586.21-20.93 9.76z"/><path d="m4299.3 8208.53 20.93-9.76 482.04 337.52-2.02 23.01z"/><path d="m4379.38 8176.71 11.47-16.39 423.39 296.46-11.47 16.39z"/><path d="m4800.25 8559.3 2.02-23.01 533.32-248.69 18.91 13.25z"/><path d="m5354.5 8300.85-18.91-13.25 51.28-586.21 10.47-4.88 9.69 3.97z"/><path d="m5286.9 8247.41-19.92-1.74 45.05-514.9 19.92 1.75z"/><path d="m5395.51 7683.02 1.83 13.49-10.47 4.88-321.67-225.24 11.47-16.38z"/><path d="m5407.03 7700.48-9.69-3.97-1.83-13.49 258.34-312.71 12.81 15.9z"/><path d="m5984.38 6970.22 23.23 3.28-275.93 334.01-12.81-15.9z"/><path d="m5332.54 6907.52.53-15.27 13.06.26 467.88 581.02-15.58 12.54z"/><path d="m5314.23 6897.85 18.84-5.6-.53 15.27-278.22 299.63-14.65-13.6z"/><path d="m5053.27 6882.25a289.8 289.8 0 1 0 579.6 0 289.8 289.8 0 1 0 -579.6 0z" fill="#fa666a"/></g></svg>

<?xml version="1.0" standalone="no" ?>
<!DOCTYPE svg PUBLIC "-//W3C//DTD SVG 1.1//EN" "http://www.w3.org/Graphics/SVG/1.1/DTD/svg11.dtd">
<svg width="172px" height="140px" viewBox="0 0 172 140" style="background-color: #ffffff00" xmlns="http://www.w3.org/2000/svg" xmlns:xlink="http://www.w3.org/1999/xlink" version="1.1" >
<text x="0" y="0" stroke="none" fill="#000000" transform="matrix(0.05 0 0 0.05 48.135 54.0898)" font-style="normal" font-weight="bold" font-size="360px" font-family="Helvetica" >
N</text>
<path stroke="none" fill="#000000" transform="matrix(0.05 0 0 0.05 -184 -290)" d="M 3723.46,6146.47 L 3743.46,6158.02 L 3743.46,6746.47 L 3723.46,6758.02 L 3723.46,6146.47 Z " />
<path stroke="none" fill="#000000" transform="matrix(0.05 0 0 0.05 -184 -290)" d="M 3795.46,6193.82 L 3815.46,6193.82 L 3815.46,6710.68 L 3795.46,6710.68 L 3795.46,6193.82 Z " />
<path stroke="none" fill="#000000" transform="matrix(0.05 0 0 0.05 -184 -290)" d="M 3723.46,6758.02 L 3743.46,6746.47 L 4253.07,7040.7 L 4253.07,7063.79 L 3723.46,6758.02 Z " />
<path stroke="none" fill="#000000" transform="matrix(0.05 0 0 0.05 -184 -290)" d="M 4253.07,7063.79 L 4253.07,7040.7 L 4603.86,6838.18 L 4613.86,6855.5 L 4253.07,7063.79 Z " />
<path stroke="none" fill="#000000" transform="matrix(0.05 0 0 0.05 -184 -290)" d="M 4258.07,6977.77 L 4248.07,6960.45 L 4567.86,6775.82 L 4577.86,6793.14 L 4258.07,6977.77 Z " />
<path stroke="none" fill="#000000" transform="matrix(0.05 0 0 0.05 -184 -290)" d="M 4782.69,6582.7 L 4762.69,6582.7 L 4762.69,6158.02 L 4772.69,6152.25 L 4782.69,6159.51 L 4782.69,6582.7 Z " />
<path stroke="none" fill="#000000" transform="matrix(0.05 0 0 0.05 -184 -290)" d="M 4773.83,6141.36 L 4772.69,6152.25 L 4762.69,6158.02 L 4253.07,5863.79 L 4253.07,5840.7 L 4773.83,6141.36 Z " />
<path stroke="none" fill="#000000" transform="matrix(0.05 0 0 0.05 -184 -290)" d="M 4705.69,6185.16 L 4695.69,6202.48 L 4248.07,5944.04 L 4258.07,5926.72 L 4705.69,6185.16 Z " />
<path stroke="none" fill="#000000" transform="matrix(0.05 0 0 0.05 -184 -290)" d="M 4253.07,5840.7 L 4253.07,5863.79 L 3743.46,6158.02 L 3723.46,6146.47 L 4253.07,5840.7 Z " />
<text x="0" y="0" stroke="none" fill="#000000" transform="matrix(0.05 0 0 0.05 97.1542 37.0898)" font-style="normal" font-weight="bold" font-size="360px" font-family="Helvetica" >
N</text>
<path stroke="none" fill="#000000" transform="matrix(0.05 0 0 0.05 -184 -290)" d="M 4927.58,6801.25 L 4932.43,6781.85 L 5329.57,6881.06 L 5333.07,6892.25 L 5314.23,6897.85 L 4927.58,6801.25 Z " />
<path stroke="none" fill="#000000" transform="matrix(0.05 0 0 0.05 -184 -290)" d="M 5346.13,6892.51 L 5333.07,6892.25 L 5329.57,6881.06 L 5609.77,6560.84 L 5624.82,6574.01 L 5346.13,6892.51 Z " />
<path stroke="none" fill="#000000" transform="matrix(0.05 0 0 0.05 -184 -290)" d="M 5620.93,6253.83 L 5606.21,6267.37 L 5340.31,5978.33 L 5346.34,5955.34 L 5620.93,6253.83 Z " />
<path stroke="none" fill="#000000" transform="matrix(0.05 0 0 0.05 -184 -290)" d="M 5346.34,5955.34 L 5340.31,5978.33 L 4782.69,6159.51 L 4772.69,6152.25 L 4773.83,6141.36 L 5346.34,5955.34 Z " />
<path stroke="none" fill="#000000" transform="matrix(0.05 0 0 0.05 -184 -290)" d="M 5910.85,6481.9 L 5917.85,6463.16 L 6284.37,6600.16 L 6266.73,6614.92 L 5910.85,6481.9 Z " />
<path stroke="none" fill="#000000" transform="matrix(0.05 0 0 0.05 -184 -290)" d="M 5824.01,6600.76 L 5842.35,6592.8 L 6007.61,6973.5 L 5984.38,6970.22 L 5824.01,6600.76 Z " />
<path stroke="none" fill="#000000" transform="matrix(0.05 0 0 0.05 -184 -290)" d="M 6266.73,6614.92 L 6284.37,6600.16 L 6401.88,7244.77 L 6393.07,7252.25 L 6382.2,7248.36 L 6266.73,6614.92 Z " />
<text x="0" y="0" stroke="none" fill="#000000" transform="matrix(0.05 0 0 0.05 106.285 98.5059)" font-style="normal" font-weight="bold" font-size="360px" font-family="Helvetica" >
N</text>
<path stroke="none" fill="#000000" transform="matrix(0.05 0 0 0.05 -184 -290)" d="M 6382.2,7248.36 L 6393.07,7252.25 L 6395.15,7263.61 L 6098.49,7515.47 L 6085.54,7500.22 L 6382.2,7248.36 Z " />
<path stroke="none" fill="#000000" transform="matrix(0.05 0 0 0.05 -184 -290)" d="M 6401.51,7326.41 L 6414.46,7341.66 L 6145.09,7570.35 L 6132.14,7555.11 L 6401.51,7326.41 Z " />
<path stroke="none" fill="#000000" transform="matrix(0.05 0 0 0.05 -184 -290)" d="M 5958.22,7819.98 L 5977.9,7816.39 L 6052.09,8223.37 L 6034.48,8238.31 L 5958.22,7819.98 Z " />
<path stroke="none" fill="#000000" transform="matrix(0.05 0 0 0.05 -184 -290)" d="M 6034.48,8238.31 L 6052.09,8223.37 L 6606.21,8421.43 L 6610.35,8444.15 L 6034.48,8238.31 Z " />
<path stroke="none" fill="#000000" transform="matrix(0.05 0 0 0.05 -184 -290)" d="M 6103.3,8186.45 L 6110.03,8167.62 L 6596.73,8341.58 L 6590,8360.42 L 6103.3,8186.45 Z " />
<path stroke="none" fill="#000000" transform="matrix(0.05 0 0 0.05 -184 -290)" d="M 6610.35,8444.15 L 6606.21,8421.43 L 7054.79,8040.58 L 7076.54,8048.36 L 6610.35,8444.15 Z " />
<path stroke="none" fill="#000000" transform="matrix(0.05 0 0 0.05 -184 -290)" d="M 7076.54,8048.36 L 7054.79,8040.58 L 6949.26,7461.67 L 6966.87,7446.72 L 7076.54,8048.36 Z " />
<path stroke="none" fill="#000000" transform="matrix(0.05 0 0 0.05 -184 -290)" d="M 6997.22,8014.69 L 6977.54,8018.28 L 6884.85,7509.8 L 6904.53,7506.21 L 6997.22,8014.69 Z " />
<path stroke="none" fill="#000000" transform="matrix(0.05 0 0 0.05 -184 -290)" d="M 6966.87,7446.72 L 6949.26,7461.67 L 6395.15,7263.61 L 6393.07,7252.25 L 6401.88,7244.77 L 6966.87,7446.72 Z " />
<text x="0" y="0" stroke="none" fill="#000000" transform="matrix(0.05 0 0 0.05 54.7929 84.0957)" font-style="normal" font-weight="bold" font-size="360px" font-family="Helvetica" >
N</text>
<path stroke="none" fill="#000000" transform="matrix(0.05 0 0 0.05 -184 -290)" d="M 4739.95,7418.69 L 4748.41,7436.81 L 4371.52,7612.56 L 4352.6,7599.31 L 4739.95,7418.69 Z " />
<path stroke="none" fill="#000000" transform="matrix(0.05 0 0 0.05 -184 -290)" d="M 4770.38,7483.94 L 4778.83,7502.07 L 4434.39,7662.68 L 4425.94,7644.56 L 4770.38,7483.94 Z " />
<path stroke="none" fill="#000000" transform="matrix(0.05 0 0 0.05 -184 -290)" d="M 4352.6,7599.31 L 4371.52,7612.56 L 4320.23,8198.77 L 4299.3,8208.53 L 4352.6,7599.31 Z " />
<path stroke="none" fill="#000000" transform="matrix(0.05 0 0 0.05 -184 -290)" d="M 4299.3,8208.53 L 4320.23,8198.77 L 4802.27,8536.29 L 4800.25,8559.3 L 4299.3,8208.53 Z " />
<path stroke="none" fill="#000000" transform="matrix(0.05 0 0 0.05 -184 -290)" d="M 4379.38,8176.71 L 4390.85,8160.32 L 4814.24,8456.78 L 4802.77,8473.17 L 4379.38,8176.71 Z " />
<path stroke="none" fill="#000000" transform="matrix(0.05 0 0 0.05 -184 -290)" d="M 4800.25,8559.3 L 4802.27,8536.29 L 5335.59,8287.6 L 5354.5,8300.85 L 4800.25,8559.3 Z " />
<path stroke="none" fill="#000000" transform="matrix(0.05 0 0 0.05 -184 -290)" d="M 5354.5,8300.85 L 5335.59,8287.6 L 5386.87,7701.39 L 5397.34,7696.51 L 5407.03,7700.48 L 5354.5,8300.85 Z " />
<path stroke="none" fill="#000000" transform="matrix(0.05 0 0 0.05 -184 -290)" d="M 5286.9,8247.41 L 5266.98,8245.67 L 5312.03,7730.77 L 5331.95,7732.52 L 5286.9,8247.41 Z " />
<path stroke="none" fill="#000000" transform="matrix(0.05 0 0 0.05 -184 -290)" d="M 5395.51,7683.02 L 5397.34,7696.51 L 5386.87,7701.39 L 5065.2,7476.15 L 5076.67,7459.77 L 5395.51,7683.02 Z " />
<path stroke="none" fill="#000000" transform="matrix(0.05 0 0 0.05 -184 -290)" d="M 5407.03,7700.48 L 5397.34,7696.51 L 5395.51,7683.02 L 5653.85,7370.31 L 5666.66,7386.21 L 5407.03,7700.48 L 5407.03,7700.48 Z " />
<path stroke="none" fill="#000000" transform="matrix(0.05 0 0 0.05 -184 -290)" d="M 5984.38,6970.22 L 6007.61,6973.5 L 5731.68,7307.51 L 5718.87,7291.61 L 5984.38,6970.22 L 5984.38,6970.22 Z " />
<path stroke="none" fill="#000000" transform="matrix(0.05 0 0 0.05 -184 -290)" d="M 5332.54,6907.52 L 5333.07,6892.25 L 5346.13,6892.51 L 5814.01,7473.53 L 5798.43,7486.07 L 5332.54,6907.52 Z " />
<path stroke="none" fill="#000000" transform="matrix(0.05 0 0 0.05 -184 -290)" d="M 5314.23,6897.85 L 5333.07,6892.25 L 5332.54,6907.52 L 5054.32,7207.15 L 5039.67,7193.55 L 5314.23,6897.85 Z " />
<path stroke="none" fill="#fa666a" transform="matrix(0.05 0 0 0.05 -184 -290)" d="M 5053.27,6882.25 A 289.8,289.8 0 1 0 5632.87,6882.25 A 289.8,289.8 0 1 0 5053.27,6882.25 Z " />
</svg>
